packages/admin/admin-icons/icons/device-tablet.svg

<svg xmlns="http://www.w3.org/2000/svg" width="16" height="16" viewBox="0 0 16 16"><path fill="#0F0F0F" fill-rule="evenodd" d="M3.061617e-17,2.5 C3.061617e-17,2.25454011 0.176875161,2.05039163 0.410124368,2.00805567 L0.5,2 L10.5,2 C10.7761424,2 11,2.22385763 11,2.5 C11,2.74545989 10.8231248,2.94960837 10.5898756,2.99194433 L10.5,3 L1,3 L1,13 L13,13 L13,2.5 C13,2.22385763 13.2238576,2 13.5,2 L15.5,2 C15.7454599,2 15.9496084,2.17687516 15.9919443,2.41012437 L16,2.5 L16,13.5 C16,13.7454599 15.8231248,13.9496084 15.5898756,13.9919443 L15.5,14 L0.5,14 C0.254540111,14 0.0503916296,13.8231248 0.00805566941,13.5898756 L3.061617e-17,13.5 L3.061617e-17,2.5 Z M13.75,8 C13.75,8.41421356 14.0857864,8.75 14.5,8.75 C14.9142136,8.75 15.25,8.41421356 15.25,8 C15.25,7.58578644 14.9142136,7.25 14.5,7.25 C14.0857864,7.25 13.75,7.58578644 13.75,8 Z"/></svg>

<svg width="16" height="16" fill="none" viewBox="0 0 16 16">
  <path fill="#242424" fill-rule="evenodd" d="M0 2.501a.5.5 0 0 1 .41-.492l.09-.008h10a.5.5 0 0 1 .09.992L10.5 3H1v10h12V2.5a.5.5 0 0 1 .5-.5h2a.5.5 0 0 1 .492.41L16 2.5v11a.5.5 0 0 1-.41.492L15.5 14H.5a.5.5 0 0 1-.492-.41L0 13.5v-11Zm13.75 5.5a.75.75 0 1 0 1.5 0 .75.75 0 0 0-1.5 0Z" clip-rule="evenodd"/>
</svg>
